X:1
T:Danse des Foins
M:2/4
L:1/8
K:D
 D| A,D CD| EF E2| F E/2D/2 CD| EE D z| D E/2F/2 GF| E/2D/2 C/2D/2 ED|\
 D E/2F/2 GF| EE D||
